!!!!SEGMENT: pl-sa--19-a-i-19--002_stolle--sinfonia-di-camera-allegretto.krn
!!!cenid: 17xx:663
!!!COM: Stolle
!!!COM-rismID: pe41022824
!!!CDT:
!!!CNT:
!!!OPR: Sinfonia di Camera
!!!OTL: Allegretto
!!!OMV: 002
!!!PDT:
!!!AGN: Secular
!!!SMS-siglum: PL-SA
!!!SMS-shelfmark: 19/A I 19
!!!SMS-shelfwork: 001-002 M
!!!SMS-variant:
!!!SMS-altvar:
!!!NIFC-rismSourceID: 1001076835
!!!NIFC-islandoraID:
!!!URL-pdf-islandora:
!!!URL-scan: https://bc.bdsandomierz.pl/dlibra/publication/1299/edition/1267/content @EN{Scan in the Sandomierz Diocese Digital Library} @PL{Skany w portalu Cyfrowa Biblioteka Diecezjalna w Sandomierzu}
!!!ONB-nifc: UWAGA: części Sinfonii: Allegro assai, Allegretto, Minuetto (1mo + 2do), Polacchina
!!!AIN: 2 cor 1 empty 2 oboe 2 violn
!!!key:
**kern	**dynam	**kern	**dynam	**kern	**dynam	**kern	**kern	**kern	**dynam	**kern	**dynam
*part7	*part7	*part6	*part6	*part5	*part5	*part4	*part3	*part2	*part2	*part1	*part1
*	*	*group3	*	*group3	*	*group2	*group2	*group1	*	*group1	*
*staff7	*	*staff6	*	*staff5	*	*staff4	*staff3	*staff2	*	*staff1	*
*Iempty	*	*Ivioln	*	*Ivioln	*	*Icor	*Icor	*Ioboe	*	*Ioboe	*
*I"Baſso	*	*I"Violino secondo.	*	*I"Violino Primo.	*	*I"Corno 2do del C.	*I"Corno 1mo del C.	*I"Oboe Seconda	*	*I"Oboe 1ma	*
*I'b	*	*I'vl 2	*	*I'vl 1	*	*I'cor 2	*I'cor 1	*I'ob 2	*	*I'ob 1	*
*clefF4	*	*clefG2	*	*clefG2	*	*clefG2	*clefG2	*clefG2	*	*clefG2	*
*	*	*	*	*	*	*Trd0c0	*Trd0c0	*	*	*	*
*k[b-e-a-]	*	*k[b-e-a-]	*	*k[b-e-a-]	*	*k[]	*k[]	*k[b-e-a-]	*	*k[b-e-a-]	*
*c:	*	*c:	*	*c:	*	*	*	*c:	*	*c:	*
*M3/4	*	*M3/4	*	*M3/4	*	*M3/4	*M3/4	*M3/4	*	*M3/4	*
*>[A,A,B]	*	*>[A,A,B]	*	*>[A,A,B]	*	*>[A,A,B]	*>[A,A,B]	*>[A,A,B]	*	*>[A,A,B]	*
=1!|:	=1!|:	=1!|:	=1!|:	=1!|:	=1!|:	=1!|:	=1!|:	=1!|:	=1!|:	=1!|:	=1!|:
*>A	*	*>A	*	*>A	*	*>A	*>A	*>A	*	*>A	*
!LO:TX:a:B:t=Allegretto	!LO:DY:t=Piano per tutto	!	!LO:DY:t=Piano per tutto	!	!LO:DY:t=Piano per tutto	!LO:TX:a:Bi:t=Allegretto\n si Tace	!LO:TX:a:Bi:t=Allegretto si Tace	!LO:TX:a:B:t=Allegretto	!LO:DY:a:t=Piano Sempre	!LO:TX:a:t=Allegretto	!LO:DY:t=Piano Sempre
!LO:TX:a:t=P:problem=bemole BB- AA- E-	!	!LO:TX:a:t=P:problem=bemole ee- a- jeden pod drugim	!	!	!	!	!	!LO:TX:a:t=P:problem=kolejność znaków b- a- ee-	!	!LO:TX:a:t=P:problem=kolejność znaków b- a- ee-	!
!LO:TX:a:t=P:problem=pierwsza linijka tego głosu pojawia się również w źródle na str.22	!	!	!	!	!	!	!	!	!	!	!
8C/L	p	8ee-\	p	(16cc\LL	p	2.ryy	2.ryy	4e-/	p	4cc\	p
.	.	.	.	16aa-\JJ)	.	.	.	.	.	.	.
.	.	.	.	8qqaa-/	.	.	.	.	.	.	.
8C/	.	4ee-\	.	4gg\	.	.	.	.	.	.	.
8C/	.	.	.	.	.	.	.	4r	.	4r	.
8C/	.	(8dd\L	.	(8ff\L	.	.	.	.	.	.	.
8C/	.	8cc\)	.	8ee-\	.	.	.	4r	.	4r	.
8D/J	.	8bn\J	.	8dd\J)	.	.	.	.	.	.	.
=2	=2	=2	=2	=2	=2	=2	=2	=2	=2	=2	=2
!LO:TX:a:t=P:problem=mixed beam	!	!	!	!	!	!	!	!LO:TX:b:t=5	!	!LO:TX:a:t=5	!
!	!	!	!	!LO:TUP:a:problem=klamra łukowa	!	!	!	!LO:N:vis=00	!	!LO:N:vis=00	!
8E-\L	.	8cc\	.	24cc\LL	.	2.ryy	2.ryy	0.r	.	0.r	.
.	.	.	.	24bn\	.	.	.	.	.	.	.
.	.	.	.	24cc\JJ	.	.	.	.	.	.	.
.	.	.	.	8qqa-\	.	.	.	.	.	.	.
8E-\	.	4cc\	.	4g/	.	.	.	.	.	.	.
8E-\	.	.	.	.	.	.	.	.	.	.	.
8F\	.	(8d/L	.	(8f/L	.	.	.	.	.	.	.
8G\	.	8c/)	.	8e-/	.	.	.	.	.	.	.
8GG/J	.	8Bn/J	.	8d/J)	.	.	.	.	.	.	.
=3	=3	=3	=3	=3	=3	=3	=3	=3	=3	=3	=3
*	*	*	*	*Xtuplet	*	*	*	*	*	*	*
!	!	!	!	!LO:TUP:b:problem=klamra łukowa	!	!	!	!	!	!	!
8C/L	.	8c/	.	24e-/LL	.	2.ryy	2.ryy	.	.	.	.
.	.	.	.	24d/	.	.	.	.	.	.	.
.	.	.	.	24c/JJ	.	.	.	.	.	.	.
8C/	.	4e-/	.	4c/	.	.	.	.	.	.	.
8C/	.	.	.	.	.	.	.	.	.	.	.
8C/	.	4f/	.	8gt</L	.	.	.	.	.	.	.
8FF/	.	.	.	8a-/	.	.	.	.	.	.	.
8FF/J	.	8f/	.	8c/J	.	.	.	.	.	.	.
!	!	!	!	!LO:LB:g=original	!	!	!	!	!	!	!
=4	=4	=4	=4	=4	=4	=4	=4	=4	=4	=4	=4
8GG/L	.	8d/	.	(16Bn/LL	.	2.ryy	2.ryy	.	.	.	.
.	.	.	.	16d/JJ)	.	.	.	.	.	.	.
8GG/	.	4d/	.	4G/	.	.	.	.	.	.	.
8C/	.	.	.	.	.	.	.	.	.	.	.
8C/	.	4e-/	.	8gt</L	.	.	.	.	.	.	.
8FF/	.	.	.	8a-/	.	.	.	.	.	.	.
8FF/J	.	8f/	.	8c/J	.	.	.	.	.	.	.
!	!	!LO:LB:g=original	!	!	!	!	!	!	!	!	!
=5	=5	=5	=5	=5	=5	=5	=5	=5	=5	=5	=5
8GG/L	.	8d/	.	(16Bn/LL	.	2.ryy	2.ryy	.	.	.	.
.	.	.	.	16d/JJ)	.	.	.	.	.	.	.
8GG/	.	4d/	.	4G/	.	.	.	.	.	.	.
8GG/	.	.	.	.	.	.	.	.	.	.	.
8GG/	.	[8g/	.	(16dd\LL	.	.	.	.	.	.	.
.	.	.	.	16cc\JJ)	.	.	.	.	.	.	.
8GG/	.	(16g/LL]	.	(16bn/LL	.	.	.	.	.	.	.
.	.	16f/	.	16a-/	.	.	.	.	.	.	.
8GG/J	.	16e-/)	.	16g/)	.	.	.	.	.	.	.
.	.	16d/JJ	.	16f/JJ	.	.	.	.	.	.	.
=6	=6	=6	=6	=6	=6	=6	=6	=6	=6	=6	=6
.	.	8qqd\	.	8qqf\	.	.	.	.	.	.	.
!LO:TX:a:t=P:problem=mixed beam	!	!	!	!	!	!	!	!	!	!	!
8C\L	.	4c/	.	4e-T/	.	2.ryy	2.ryy	2.r	.	2.r	.
8E-\	.	.	.	.	.	.	.	.	.	.	.
8G\	.	4Bn/	.	4d/	.	.	.	.	.	.	.
8GG/	.	.	.	.	.	.	.	.	.	.	.
8d\	.	4r	.	4r	.	.	.	.	.	.	.
8c\J	.	.	.	.	.	.	.	.	.	.	.
=7	=7	=7	=7	=7	=7	=7	=7	=7	=7	=7	=7
.	.	.	.	8qqff/	.	.	.	.	.	.	.
*	*	*	*	*	*	*	*	*	*	*2\right	*
8B-X\L	.	8cc\	.	8een\	.	2.ryy	2.ryy	2.g/	.	2.een\	.
8B-\	.	4cc\	.	4ee\	.	.	.	.	.	.	.
8B-\	.	.	.	.	.	.	.	.	.	.	.
.	.	.	.	(16qqbb-/LL	.	.	.	.	.	.	.
.	.	.	.	16qqccc/JJ	.	.	.	.	.	.	.
8B-\	.	4cc\	.	8ddd-X\)	.	.	.	.	.	.	.
!LO:LB:g=original	!	!	!	!	!	!	!	!	!	!	!
8B-\	.	.	.	16ccc\LL	.	.	.	.	.	.	.
.	.	.	.	(16bb-\	.	.	.	.	.	.	.
8B-\J	.	[8cc\	.	16aa-\	.	.	.	.	.	.	.
.	.	.	.	16gg\JJ)	.	.	.	.	.	.	.
!LO:PB:g=original	!	!	!	!LO:LB:g=original	!	!	!	!	!	!	!
=8	=8	=8	=8	=8	=8	=8	=8	=8	=8	=8	=8
8A-\L	.	8cc\]	.	8ff\	.	2.ryy	2.ryy	2.a-/	.	2.ff\	.
.	.	.	.	8qqgg/	.	.	.	.	.	.	.
8A-\	.	4cc\	.	4ff\	.	.	.	.	.	.	.
8A-\	.	.	.	.	.	.	.	.	.	.	.
8A-\	.	4cc\	.	(16ff\LL	.	.	.	.	.	.	.
.	.	.	.	16gg\JJ)	.	.	.	.	.	.	.
8A-\	.	.	.	(16aa-\LL	.	.	.	.	.	.	.
.	.	.	.	16gg\	.	.	.	.	.	.	.
8A-\J	.	8cc\	.	16ff\)	.	.	.	.	.	.	.
.	.	.	.	16ee-\JJ	.	.	.	.	.	.	.
=9	=9	=9	=9	=9	=9	=9	=9	=9	=9	=9	=9
.	.	.	.	8qqee-/	.	.	.	.	.	.	.
8A-\L	.	8b-/	.	8dd\	.	2.ryy	2.ryy	2.f/	.	2.dd\	.
8A-\	.	4b-/	.	4dd\	.	.	.	.	.	.	.
8A-\	.	.	.	.	.	.	.	.	.	.	.
.	.	.	.	16qqaa-/LL	.	.	.	.	.	.	.
.	.	.	.	16qqbb-/JJ	.	.	.	.	.	.	.
8A-\	.	4b-/	.	8ccc\	.	.	.	.	.	.	.
8A-\	.	.	.	16bb-\LL	.	.	.	.	.	.	.
.	.	.	.	(16aa-\	.	.	.	.	.	.	.
8A-\J	.	[8b-/	.	16gg\)	.	.	.	.	.	.	.
.	.	.	.	16ff\JJ	.	.	.	.	.	.	.
=10	=10	=10	=10	=10	=10	=10	=10	=10	=10	=10	=10
8G\L	.	8b-/]	.	8ee-\	.	2.ryy	2.ryy	2.g/	.	2.ee-X\	.
.	.	.	.	8qqff/	.	.	.	.	.	.	.
8G\	.	4b-/	.	4ee-\	.	.	.	.	.	.	.
8G\	.	.	.	.	.	.	.	.	.	.	.
8G\	.	4b-/	.	(16ee-\LL	.	.	.	.	.	.	.
.	.	.	.	16ff\JJ)	.	.	.	.	.	.	.
8G\	.	.	.	16gg\LL	.	.	.	.	.	.	.
.	.	.	.	(16ff\	.	.	.	.	.	.	.
8G\J	.	8b-/	.	16ee-\)	.	.	.	.	.	.	.
.	.	.	.	16dd\JJ	.	.	.	.	.	.	.
!	!	!LO:LB:g=original	!	!	!	!	!	!LO:LB:g=original	!	!LO:LB:g=original	!
=11	=11	=11	=11	=11	=11	=11	=11	=11	=11	=11	=11
8G\L	.	8a-/	.	8cc\	.	2.ryy	2.ryy	2.e-/	.	2.cc\	.
8G\	.	4a-/	.	4cc\	.	.	.	.	.	.	.
8G\	.	.	.	.	.	.	.	.	.	.	.
.	.	.	.	(16qqgg/LL	.	.	.	.	.	.	.
.	.	.	.	16qqaa-/JJ	.	.	.	.	.	.	.
8G\	.	4a-/	.	8bb-\)	.	.	.	.	.	.	.
8G\	.	.	.	16aa-\LL	.	.	.	.	.	.	.
.	.	.	.	(16gg\	.	.	.	.	.	.	.
8G\J	.	[8a-/	.	16ff\	.	.	.	.	.	.	.
.	.	.	.	16ee-\JJ)	.	.	.	.	.	.	.
!	!	!	!	!LO:LB:g=original	!	!	!	!	!	!	!
=12	=12	=12	=12	=12	=12	=12	=12	=12	=12	=12	=12
!LO:TX:a:t=P:problem=mixed beam	!	!	!	!	!	!	!	!	!	!	!
8F\L	.	8a-/]	.	8dd\	.	2.ryy	2.ryy	[2.f/	.	2.dd\	.
.	.	.	.	8qqee-/	.	.	.	.	.	.	.
8F\	.	4a-/	.	4dd\	.	.	.	.	.	.	.
8F\	.	.	.	.	.	.	.	.	.	.	.
8F\	.	4a-/	.	(16dd\LL	.	.	.	.	.	.	.
.	.	.	.	16ee-\JJ)	.	.	.	.	.	.	.
8BB-/	.	.	.	16ff\LL	.	.	.	.	.	.	.
.	.	.	.	(16ee-\	.	.	.	.	.	.	.
8BB-/J	.	8a-/	.	16dd\)	.	.	.	.	.	.	.
.	.	.	.	16cc\JJ	.	.	.	.	.	.	.
=13	=13	=13	=13	=13	=13	=13	=13	=13	=13	=13	=13
8D\L	.	8f/	.	8b-/	.	2.ryy	2.ryy	8f/]	.	8b-/	.
8D\	.	4f/	.	4b-/	.	.	.	4ff\	.	4b-/	.
8D\	.	.	.	.	.	.	.	.	.	.	.
8D\	.	4ff\	.	4aa-\	.	.	.	4ff\	.	4aa-\	.
8E-\	.	.	.	.	.	.	.	.	.	.	.
8E-\J	.	8ee-\	.	8gg\	.	.	.	8ee-\	.	8gg\	.
=14	=14	=14	=14	=14	=14	=14	=14	=14	=14	=14	=14
.	.	8qqff/	.	8qqaa-/	.	.	.	8qqff/	.	8qqaa-/	.
4B-\	.	4ee-T\	.	4ggt\	.	2.ryy	2.ryy	4ee-T\	.	4ggt\	.
4BB-/	.	4dd\	.	4ff\	.	.	.	4dd\	.	4ff\	.
4r	.	4r	.	4r	.	.	.	4r	.	4r	.
=15	=15	=15	=15	=15	=15	=15	=15	=15	=15	=15	=15
!LO:TX:a:t=2	!	!	!	!	!LO:DY:a	!	!	!LO:TX:b:t=2	!	!LO:TX:b:t=2	!
!LO:N:vis=0	!	!	!	!	!	!	!	!LO:N:vis=0	!	!LO:N:vis=0	!
1.r	.	2.r	.	8B-/	ff	2.ryy	2.ryy	1.r	.	1.r	.
.	.	.	.	4B-/	.	.	.	.	.	.	.
.	.	.	.	4B-/	.	.	.	.	.	.	.
.	.	.	.	8B-/	.	.	.	.	.	.	.
=16	=16	=16	=16	=16	=16	=16	=16	=16	=16	=16	=16
!	!	!	!LO:DY:a	!	!	!	!	!	!	!	!
.	.	8B-/	ff	8d/	.	2.ryy	2.ryy	.	.	.	.
.	.	4B-/	.	4d/	.	.	.	.	.	.	.
.	.	4B-/	.	4d/	.	.	.	.	.	.	.
.	.	8B-/	.	8d/	.	.	.	.	.	.	.
*	*	*	*	*	*	*	*	*	*	*custos:b	*
!	!	!	!	!	!	!	!	!	!	!LO:LB:g=original	!
=17	=17	=17	=17	=17	=17	=17	=17	=17	=17	=17	=17
!	!LO:DY:a	!	!	!	!	!	!	!	!LO:DY:a	!	!LO:DY:a
8BB-/	ff	8d/	.	8f/	.	2.ryy	2.ryy	2.d/	ff	2.b-/	ff
4BB-/	.	4d/	.	4f/	.	.	.	.	.	.	.
4BB-/	.	4d/	.	4f/	.	.	.	.	.	.	.
[8BB-/	.	8d/	.	8f/	.	.	.	.	.	.	.
!LO:LB:g=original	!	!	!	!LO:LB:g=original	!	!	!	!	!	!	!
=18	=18	=18	=18	=18	=18	=18	=18	=18	=18	=18	=18
!LO:TX:b:t=P:problem=brak zakończenia ligatury	!	!	!	!	!	!	!	!	!	!	!
8BB-/]	.	8f/	.	8a-/	.	2.ryy	2.ryy	2.f/	.	[<2.dd\	.
4BB-/	.	4f/	.	4a-/	.	.	.	.	.	.	.
4BB-/	.	4f/	.	4a-/	.	.	.	.	.	.	.
[8BB-/	.	8f/	.	8a-/	.	.	.	.	.	.	.
!	!	!LO:LB:g=original	!	!	!	!	!	!LO:LB:g=original	!	!	!
=19	=19	=19	=19	=19	=19	=19	=19	=19	=19	=19	=19
8BB-/]	.	8a-/	.	8ff\	.	2.ryy	2.ryy	2.a-/	.	2.dd\]	.
4BB-/	.	4a-/	.	4ff\	.	.	.	.	.	.	.
4BB-/	.	16f/LL	.	16dd\LL	.	.	.	.	.	.	.
.	.	16g/JJ	.	16ee-\JJ	.	.	.	.	.	.	.
!	!	!	!	!LO:TX:a:t=P:problem=mixed beam	!	!	!	!	!	!	!
.	.	16a-/LL	.	16ff\LL	.	.	.	.	.	.	.
.	.	16f/	.	(16a-/	.	.	.	.	.	.	.
8BB-/	.	16e-/	.	16g/	.	.	.	.	.	.	.
.	.	16f/JJ	.	16a-/JJ)	.	.	.	.	.	.	.
=20	=20	=20	=20	=20	=20	=20	=20	=20	=20	=20	=20
8E-\L	.	16B-/LL	.	8g/	.	2.ryy	2.ryy	2.g/	.	2.ee-\	.
.	.	16e-/JJ	.	.	.	.	.	.	.	.	.
8e-\	.	4g/	.	4b-/	.	.	.	.	.	.	.
8B-\	.	.	.	.	.	.	.	.	.	.	.
8G\J	.	4b-/	.	4ee-\	.	.	.	.	.	.	.
4E-\	.	.	.	.	.	.	.	.	.	.	.
.	.	8g/	.	8b-/	.	.	.	.	.	.	.
=21	=21	=21	=21	=21	=21	=21	=21	=21	=21	=21	=21
!	!LO:DY:a:t=P.o	!	!	!	!LO:DY:a	!	!	!LO:TX:b:t=3.	!	!LO:TX:b:t=3	!
!	!	!	!	!	!	!	!	!LO:N:vis=0	!	!LO:N:vis=0	!
8AA-/L	p	8ee-\	p	8cc\	p	2.ryy	2.ryy	1.r	.	1.r	.
8AA-/	.	4cc\	.	4a-/	.	.	.	.	.	.	.
8AA-/	.	.	.	.	.	.	.	.	.	.	.
8AA-/	.	4a-/	.	4f/	.	.	.	.	.	.	.
8AA-/	.	.	.	.	.	.	.	.	.	.	.
8AA-/J	.	8g/	.	8e-/	.	.	.	.	.	.	.
=22	=22	=22	=22	=22	=22	=22	=22	=22	=22	=22	=22
8BB-/L	.	(16f/LL	.	(16d/LL	.	2.ryy	2.ryy	.	.	.	.
.	.	16e-/JJ)	.	16e-/JJ)	.	.	.	.	.	.	.
8BB-/	.	4d/	.	4f/	.	.	.	.	.	.	.
8BB-/	.	.	.	.	.	.	.	.	.	.	.
8BB-/	.	4d/	.	4B-/	.	.	.	.	.	.	.
8BB-/	.	.	.	.	.	.	.	.	.	.	.
8BB-/J	.	8d/	.	8A-/	.	.	.	.	.	.	.
*	*	*	*	*custos:G	*	*	*	*	*	*	*
!	!	!	!	!LO:LB:g=original	!	!	!	!	!	!	!
=23	=23	=23	=23	=23	=23	=23	=23	=23	=23	=23	=23
4E-\	.	4B-/	.	(16G/LL	.	2.ryy	2.ryy	2.r	.	2.r	.
.	.	.	.	16B-/)	.	.	.	.	.	.	.
.	.	.	.	(16e-/	.	.	.	.	.	.	.
.	.	.	.	16g/JJ)	.	.	.	.	.	.	.
8r	.	8r	.	(16b-\LL	.	.	.	.	.	.	.
.	.	.	.	16ee-\)	.	.	.	.	.	.	.
8E-\L	.	8g/L	.	(16gg\	.	.	.	.	.	.	.
.	.	.	.	16bb-\JJ)	.	.	.	.	.	.	.
8E-\	.	8g/	.	4bb-T\	.	.	.	.	.	.	.
8E-\J	.	8g/J	.	.	.	.	.	.	.	.	.
=24	=24	=24	=24	=24	=24	=24	=24	=24	=24	=24	=24
!	!	!	!	!	!	!	!	!	!LO:DY:a	!	!
4E-\	.	8g/	.	2.r	.	2.ryy	2.ryy	(8g/L	p	(8b-/L	p
.	.	8r	.	.	.	.	.	8f/)	.	8a-/)	.
4r	.	4r	.	.	.	.	.	(8f/	.	(8a-/	.
.	.	.	.	.	.	.	.	8e-/J)	.	8g/J)	.
4r	.	4r	.	.	.	.	.	4e-/	.	4g/	.
=25	=25	=25	=25	=25	=25	=25	=25	=25	=25	=25	=25
4BB-/	.	4d/	.	(16B-/LL	.	2.ryy	2.ryy	2.r	.	2.r	.
.	.	.	.	16d/)	.	.	.	.	.	.	.
.	.	.	.	(16f/	.	.	.	.	.	.	.
.	.	.	.	16a-/JJ)	.	.	.	.	.	.	.
8r	.	8r	.	(16b-\LL	.	.	.	.	.	.	.
.	.	.	.	16dd\)	.	.	.	.	.	.	.
8BB-/L	.	8f/L	.	(16ff\	.	.	.	.	.	.	.
.	.	.	.	16aa-\JJ)	.	.	.	.	.	.	.
8BB-/	.	8f/	.	4aa-\	.	.	.	.	.	.	.
8BB-/J	.	8f/J	.	.	.	.	.	.	.	.	.
!	!	!LO:LB:g=original	!	!	!	!	!	!	!	!LO:LB:g=original	!
=26	=26	=26	=26	=26	=26	=26	=26	=26	=26	=26	=26
4BB-/	.	8f/	.	2.r	.	2.ryy	2.ryy	(8f/L	.	(8a-/L	.
.	.	8r	.	.	.	.	.	8e-/)	.	8g/)	.
4r	.	4r	.	.	.	.	.	(8e-/	.	(8g/	.
.	.	.	.	.	.	.	.	8d/J)	.	8f/J)	.
4r	.	4r	.	.	.	.	.	4d/	.	4f/	.
=27	=27	=27	=27	=27	=27	=27	=27	=27	=27	=27	=27
4E-\	.	4B-/	.	(16G/LL	.	2.ryy	2.ryy	2.r	.	2.r	.
.	.	.	.	16B-/)	.	.	.	.	.	.	.
.	.	.	.	(16e-/	.	.	.	.	.	.	.
.	.	.	.	16g/JJ)	.	.	.	.	.	.	.
8r	.	8r	.	(16b-\LL	.	.	.	.	.	.	.
.	.	.	.	16ee-\)	.	.	.	.	.	.	.
!LO:LB:g=original	!	!	!	!	!	!	!	!	!	!	!
8E-\L	.	8g/L	.	(16gg\	.	.	.	.	.	.	.
.	.	.	.	16bb-\JJ)	.	.	.	.	.	.	.
8E-\	.	8g/	.	4bb-T\	.	.	.	.	.	.	.
8E-\J	.	8g/J	.	.	.	.	.	.	.	.	.
*	*	*	*	*custos:ccc	*	*	*	*custos:cc	*	*	*
!	!	!	!	!LO:LB:g=original	!	!	!	!LO:LB:g=original	!	!	!
=28	=28	=28	=28	=28	=28	=28	=28	=28	=28	=28	=28
*	*	*	*	*	*	*	*	*2\right	*	*	*
4AA-/	.	8ee-\	.	8ccc\L	.	2.ryy	2.ryy	2.cc\	.	2.ee-\	.
.	.	4ee-\	.	16aa-\L	.	.	.	.	.	.	.
.	.	.	.	16bb-\JJ	.	.	.	.	.	.	.
4AA-/	.	.	.	16ccc\LL	.	.	.	.	.	.	.
.	.	.	.	(16bb-\	.	.	.	.	.	.	.
.	.	4ee-\	.	16aa-\)	.	.	.	.	.	.	.
.	.	.	.	16gg\JJ	.	.	.	.	.	.	.
4AA-/	.	.	.	(16ff\LL	.	.	.	.	.	.	.
.	.	.	.	16ee-\	.	.	.	.	.	.	.
.	.	8ee-\	.	16dd\	.	.	.	.	.	.	.
.	.	.	.	16cc\JJ)	.	.	.	.	.	.	.
=29	=29	=29	=29	=29	=29	=29	=29	=29	=29	=29	=29
!LO:TX:a:t=P:problem=mixed beam	!	!	!	!	!	!	!	!	!	!	!
8BB-/L	.	8dd\	.	(16b-\LL	.	2.ryy	2.ryy	2.f/	.	2.dd\	.
.	.	.	.	16dd\JJ)	.	.	.	.	.	.	.
8B-\	.	4dd\	.	4ff\	.	.	.	.	.	.	.
8F\	.	.	.	.	.	.	.	.	.	.	.
8D\J	.	(8f/L	.	(8a-/L	.	.	.	.	.	.	.
4BB-/	.	8e-/)	.	8g/	.	.	.	.	.	.	.
.	.	8d/J	.	8f/J)	.	.	.	.	.	.	.
=30	=30	=30	=30	=30	=30	=30	=30	=30	=30	=30	=30
!LO:TX:a:t=P:problem=mixed beam	!	!	!	!LO:TX:a:t=P:problem=mixed beam	!	!	!	!	!	!	!
8E-\L	.	8B-/L	.	(16g/LL	.	2.ryy	2.ryy	4g/	.	4ee-\	.
.	.	.	.	16e-/)	.	.	.	.	.	.	.
8AA-/J	.	8e-/J	.	(>16cc\	.	.	.	.	.	.	.
.	.	.	.	16a-\JJ)	.	.	.	.	.	.	.
4BB-/	.	4e-/	.	4g/	.	.	.	4g/	.	(4ee-\	.
4BB-/	.	4d/	.	4f/	.	.	.	4f/	.	4ddt\)	.
=31	=31	=31	=31	=31	=31	=31	=31	=31	=31	=31	=31
!LO:TX:a:t=P:problem=mixed beam	!	!LO:TX:a:t=P:problem=mixed beam	!	!	!	!	!	!	!	!	!
8EE-/L	.	8e-/L	.	2e-/	.	2.ryy	2.ryy	2e-/	.	2ee-\	.
8E-\	.	8gg\	.	.	.	.	.	.	.	.	.
8G\	.	8ee-\	.	.	.	.	.	.	.	.	.
8F\	.	8dd\	.	.	.	.	.	.	.	.	.
8E-\	.	8cc\	.	4r	.	.	.	4r	.	4r	.
8D\J	.	8bn\J	.	.	.	.	.	.	.	.	.
*	*	*	*	*	*	*	*	*	*	*custos:cc	*
!	!	!	!	!	!	!	!	!	!	!LO:LB:g=original	!
=32	=32	=32	=32	=32	=32	=32	=32	=32	=32	=32	=32
8C/L	.	8ee-\	.	(16cc\LL	.	2.ryy	2.ryy	8ee-\	.	(16cc\LL	.
.	.	.	.	16aa-\JJ)	.	.	.	.	.	16aa-\JJ)	.
.	.	.	.	8qqaa-/	.	.	.	.	.	8qqaa-/	.
8C/	.	4ee-\	.	4gg\	.	.	.	4ee-\	.	4gg\	.
8C/	.	.	.	.	.	.	.	.	.	.	.
8C/	.	8dd\L	.	(8ff\L	.	.	.	(8dd\L	.	(8ff\L	.
8C/	.	8cc\	.	8ee-\	.	.	.	8cc\	.	8ee-\	.
8D/J	.	8bn\J	.	8dd\J)	.	.	.	8bn\J)	.	8dd\J)	.
!	!	!LO:LB:g=original	!	!LO:LB:g=original	!	!	!	!	!	!	!
=33	=33	=33	=33	=33	=33	=33	=33	=33	=33	=33	=33
*	*	*	*	*tuplet	*	*	*	*	*	*	*
!LO:TX:a:t=P:problem=mixed beam	!	!	!	!LO:TUP:a:problem=klamra łukowa	!	!	!	!	!	!LO:TUP:a:problem=klamra łukowa	!
8E-\L	.	8cc\	.	24cc\LL	.	2.ryy	2.ryy	8cc\	.	24cc\LL	.
.	.	.	.	24bn\	.	.	.	.	.	24bn\	.
.	.	.	.	24cc\JJ	.	.	.	.	.	24cc\JJ	.
.	.	.	.	8qqa-\	.	.	.	.	.	8qqa-\	.
8E-\	.	4cc\	.	4g/	.	.	.	4cc\	.	4g/	.
8E-\	.	.	.	.	.	.	.	.	.	.	.
8F\	.	(8d/L	.	8f/L	.	.	.	(8f/L	.	(8f/L	.
8G\	.	8c/	.	8e-/	.	.	.	8e-/	.	8e-/	.
8GG/J	.	8Bn/J)	.	8d/J	.	.	.	8d/J)	.	8d/J)	.
!	!	!	!	!	!	!	!	!LO:LB:g=original	!	!	!
=34	=34	=34	=34	=34	=34	=34	=34	=34	=34	=34	=34
*	*	*	*	*	*	*	*	*	*	*Xtuplet	*
!	!	!	!	!LO:TUP:b:problem=klamra łukowa	!	!	!	!LO:TUP:b:problem=klamra łukowa	!	!LO:TUP:b:problem=klamra łukowa	!
8C/L	.	8c/	.	24e-/LL	.	2.ryy	2.ryy	24e-/LL	.	24e-/LL	.
.	.	.	.	24d/	.	.	.	24d/	.	24d/	.
.	.	.	.	24c/JJ	.	.	.	24c/JJ	.	24c/JJ	.
8C/	.	4e-/	.	4c/	.	.	.	4c/	.	4c/	.
8C/	.	.	.	.	.	.	.	.	.	.	.
8C/	.	4e-/	.	8gt</L	.	.	.	4e-/	.	8g/L	.
8FF/	.	.	.	8a-/	.	.	.	.	.	8a-/	.
8FF/J	.	8f/	.	8c/J	.	.	.	8f/	.	8a-/J	.
!	!	!	!	!	!	!	!	!	!	!LO:LB:g=original	!
=35	=35	=35	=35	=35	=35	=35	=35	=35	=35	=35	=35
8GG/L	.	8d/	.	(16Bn/LL	.	2.ryy	2.ryy	8d/	.	8d/	.
.	.	.	.	16d/JJ)	.	.	.	.	.	.	.
8GG/	.	4d/	.	4G/	.	.	.	4d/	.	4g/	.
8C/	.	.	.	.	.	.	.	.	.	.	.
8C/	.	4e-/	.	8gt</L	.	.	.	4e-/	.	8g/L	.
8FF/	.	.	.	8a-/	.	.	.	.	.	8a-/	.
8FF/J	.	8f/	.	8c/J	.	.	.	8f/	.	8a-/J	.
!LO:LB:g=original	!	!	!	!	!	!	!	!	!	!	!
=36	=36	=36	=36	=36	=36	=36	=36	=36	=36	=36	=36
!LO:TX:a:t=P:problem=mixed beam	!	!	!LO:DY:a	!	!	!	!	!	!	!	!
8GG/L	.	8d/	ff	(16Bn/LL	.	2.ryy	2.ryy	2d/	.	2g/	.
.	.	.	.	16d/JJ)	.	.	.	.	.	.	.
8G\	ff	4d/	.	4.G/	.	.	.	.	.	.	.
8G\	.	.	.	.	.	.	.	.	.	.	.
8G\	.	4d/	.	.	.	.	.	.	.	.	.
8G\	.	.	.	4r	.	.	.	4r	.	4r	.
8G\J	.	[8d/	.	.	.	.	.	.	.	.	.
!	!	!	!	!LO:LB:g=original	!	!	!	!	!	!	!
!	!	!	!	!LO:SIC:custos bn po kresce taktowej:v	!	!	!	!	!	!	!
=37	=37	=37	=37	=37	=37	=37	=37	=37	=37	=37	=37
8A-\	.	8d/]	.	8bn/	ff	2.ryy	2.ryy	[2.dd\	ff	[<2.ff\	ff
4A-\	.	4d/	.	4b/	.	.	.	.	.	.	.
4A-\	.	4d/	.	4b/	.	.	.	.	.	.	.
8A-\	.	8d/	.	8b/	.	.	.	.	.	.	.
=38	=38	=38	=38	=38	=38	=38	=38	=38	=38	=38	=38
8F\	.	8bn/	.	8dd\	.	2.ryy	2.ryy	2.dd\]	.	2.ff\_<	.
4F\	.	4b/	.	4dd\	.	.	.	.	.	.	.
4F\	.	4b/	.	4dd\	.	.	.	.	.	.	.
8F\	.	8b/	.	8dd\	.	.	.	.	.	.	.
=39	=39	=39	=39	=39	=39	=39	=39	=39	=39	=39	=39
8BBn/	.	8dd\	.	8ff\	.	2.ryy	2.ryy	2.g/	.	2.ff\]	.
4BB/	.	4dd\	.	4ff\	.	.	.	.	.	.	.
8GG/L	.	4dd\	.	4ff\	.	.	.	.	.	.	.
8AAn/	.	.	.	.	.	.	.	.	.	.	.
8BB/J	.	8dd\	.	8ff\	.	.	.	.	.	.	.
!	!	!LO:LB:g=original	!	!	!	!	!	!	!	!	!
=40	=40	=40	=40	=40	=40	=40	=40	=40	=40	=40	=40
!	!LO:DY:a:t=P&colon;	!	!LO:DY:a	!	!	!	!	!	!LO:DY:a	!	!
4C/	p	(8g/L	p	(8ee-\L	p	2.ryy	2.ryy	(8g/L	p	(8ee-\L	p
.	.	8f/)	.	8dd\)	.	.	.	8f/)	.	8dd\)	.
4D\	.	(8f/	.	(8dd\	.	.	.	(8f/	.	(8dd\	.
.	.	8e-/J)	.	8cc\J)	.	.	.	8e-/J)	.	8cc\J)	.
4E-\	.	4e-/	.	4cc\	.	.	.	4e-/	.	4cc\	.
!	!	!	!	!	!	!	!	!LO:LB:g=original	!	!	!
=41	=41	=41	=41	=41	=41	=41	=41	=41	=41	=41	=41
4F\	.	(8d/L	.	(8bn\L	.	2.ryy	2.ryy	(8dd\L	.	(8bn\L	.
.	.	8c/J)	.	8cc\J)	.	.	.	8cc\J)	.	8cc\J)	.
4G\	.	4c/	.	4e-/	.	.	.	4e-/	.	4cc\	.
4GG/	.	4Bn/	.	4d/	.	.	.	4d/	.	4bn\	.
!	!	!	!	!LO:LB:g=original	!	!	!	!	!	!LO:LB:g=original	!
=42:|!	=42:|!	=42:|!	=42:|!	=42:|!	=42:|!	=42:|!	=42:|!	=42:|!	=42:|!	=42:|!	=42:|!
*>B	*	*>B	*	*>B	*	*>B	*>B	*>B	*	*>B	*
8C/L	.	8c/	.	(16cc\LL	.	2.ryy	2.ryy	8c/	.	(16cc\LL	.
.	.	.	.	16aa-\JJ)	.	.	.	.	.	16aa-\JJ)	.
.	.	.	.	8qqaa-/	.	.	.	.	.	8qqaa-/	.
8C/	.	4ee-\	.	4gg\	.	.	.	4ee-\	.	4gg\	.
8C/	.	.	.	.	.	.	.	.	.	.	.
8C/	.	(8dd\L	.	(8ff\L	.	.	.	(8dd\L	.	(8ff\L	.
8C/	.	8cc\	.	8ee-\	.	.	.	8cc\	.	8ee-\	.
8D/J	.	8bn\J)	.	8dd\J)	.	.	.	8bn\J)	.	8dd\J)	.
=43	=43	=43	=43	=43	=43	=43	=43	=43	=43	=43	=43
*	*	*	*	*	*	*	*	*	*	*tuplet	*
!	!	!	!	!LO:TUP:a:problem=klamra łukowa	!	!	!	!	!	!LO:TUP:a:problem=klamra łukowa	!
8E-\L	.	8cc\	.	24cc\LL	.	2.ryy	2.ryy	8cc\	.	24cc\LL	.
.	.	.	.	24bn\	.	.	.	.	.	24bn\	.
.	.	.	.	24cc\JJ	.	.	.	.	.	24cc\JJ	.
.	.	.	.	8qqa-\	.	.	.	.	.	8qqa-\	.
8E-\	.	4cc\	.	4g/	.	.	.	4cc\	.	4g/	.
8E-\	.	.	.	.	.	.	.	.	.	.	.
!	!LO:DY:a	!	!LO:DY:a	!	!LO:DY:a	!	!	!	!LO:DY:a	!	!LO:DY:a:t=for&colon;
8F\	ff	8f/L|	ff	8f/L|	ff	.	.	8f/L|	ff	8f/L|	f
8E-\	.	8e-/|	.	8e-/|	.	.	.	8e/|	.	8e-/|	.
8D\J	.	8d/J|	.	8d/J|	.	.	.	8d/J|	.	8d/J|	.
=44	=44	=44	=44	=44	=44	=44	=44	=44	=44	=44	=44
8E-\L|	.	8e-/L|	.	8e-/L|	.	2.ryy	2.ryy	8e-/L|	.	8e-/L	.
8C\J|	.	8c/J|	.	8c/J|	.	.	.	8c/J|	.	8c/J	.
4G\|	.	4g/|	.	4g/|	.	.	.	4g/|	.	4g/	.
!LO:LB:g=original	!	!	!	!	!	!	!	!	!	!	!
4GG/	.	4G/|	.	4G/|	.	.	.	4g/	.	4g/	.
=45	=45	=45	=45	=45	=45	=45	=45	=45	=45	=45	=45
*2\right	*	*	*	*	*	*	*	*	*	*	*
2C;\	.	2c;/	.	2c;/	.	2.ryy	2.ryy	2c;/	.	2c;/	.
!	!	!LO:TX:b:i:t=V&colon;S&colon;	!	!	!	!	!	!	!	!	!
4r	.	4r	.	4r	.	.	.	4r	.	4r	.
==	==	==	==	==	==	==	==	==	==	==	==
*-	*-	*-	*-	*-	*-	*-	*-	*-	*-	*-	*-
!!!system-decoration: [g1][g2][g3]s7
!!!RDF**kern: > = above
!!!RDF**kern: < = below
!!!RDF**dynam: p = "p:o"
!!!RDF**dynam: ff = "fortmo"
!!!RDF**kern: | = vertical stroke
!!!ENC: Marta Lawrence
!!!END: 2020-10-07
!!!ENC: Andrzej Borzym
!!!END: 2020-06-03
